svg/furkot/freepik/car.svg

<svg viewBox="0 0 512 512" xmlns="http://www.w3.org/2000/svg"><path d="m512.732 279.941c0-10.085-2.277-19.718-6.389-28.531-.424-2.24-.909-4.477-1.514-6.746l-44.539-110.378-.301-.993c-15.583-46.4-37.756-89.343-93.98-89.343h-214.966c-57.609 0-77.967 44.007-93.891 89.085l-46.588 110.647c-6.735 10.791-10.564 23.135-10.564 36.259v34.347c0 5.31.628 10.504 1.821 15.508-1.16 3.022-1.821 6.28-1.821 9.714v102.154c0 14.979 12.144 27.125 27.123 27.125h56.286c14.972 0 27.115-12.146 27.115-27.125v-51.085h294.899v51.085c0 14.979 12.146 27.125 27.127 27.125h53.062c14.985 0 27.127-12.146 27.127-27.125v-102.166c0-3.421-.668-6.693-1.819-9.706 1.189-5.011 1.819-10.2 1.819-15.509v-34.34h-.007zm-422.526-135.824c17.734-50.035 31.996-65.309 60.837-65.309h214.953c28.63 0 44.572 17.036 60.771 65.094l32.502 65.863c-10.613-3.93-22.291-6.11-34.561-6.11h-336.684c-11.048 0-21.605 1.776-31.345 4.991zm27.919 183.215h-59.387c-10.692 0-19.364-8.68-19.364-19.371 0-10.695 8.672-19.369 19.364-19.369h59.387c10.697 0 19.369 8.674 19.369 19.369 0 10.691-8.677 19.371-19.369 19.371zm209.789-3.88h-138.137c-6.773 0-12.261-5.491-12.261-12.26 0-6.782 5.488-12.271 12.261-12.271h138.137c6.781 0 12.267 5.489 12.267 12.271 0 6.769-5.486 12.26-12.267 12.26zm124.583 3.88h-59.385c-10.702 0-19.369-8.68-19.369-19.371 0-10.695 8.674-19.369 19.369-19.369h59.385c10.701 0 19.376 8.674 19.376 19.369 0 10.691-8.675 19.371-19.376 19.371z"/></svg>

<svg xmlns="http://www.w3.org/2000/svg" viewBox="0 0 512 512"><path d="M512.732 279.941C512.732 269.856 510.455 260.223 506.343 251.41 505.919 249.17 505.434 246.933 504.829 244.664L460.29 134.286 459.989 133.293C444.406 86.893 422.233 43.95 366.009 43.95H151.043C93.434 43.95 73.076 87.957 57.152 133.035L10.564 243.682C3.829 254.473 0 266.817 0 279.941V314.288C0 319.598 0.628 324.792 1.821 329.796 0.661 332.818 0 336.076 0 339.51V441.664C0 456.643 12.144 468.789 27.123 468.789H83.409C98.381 468.789 110.524 456.643 110.524 441.664V390.579H405.423V441.664C405.423 456.643 417.569 468.789 432.55 468.789H485.612C500.597 468.789 512.739 456.643 512.739 441.664V339.498C512.739 336.077 512.071 332.805 510.92 329.792 512.109 324.781 512.739 319.592 512.739 314.283V279.943H512.732ZM90.206 144.117C107.94 94.082 122.202 78.808 151.043 78.808H365.996C394.626 78.808 410.568 95.844 426.767 143.902L459.269 209.765C448.656 205.835 436.978 203.655 424.708 203.655H88.024C76.976 203.655 66.419 205.431 56.679 208.646L90.206 144.117ZM118.125 327.332H58.738C48.046 327.332 39.374 318.652 39.374 307.961 39.374 297.266 48.046 288.592 58.738 288.592H118.125C128.822 288.592 137.494 297.266 137.494 307.961 137.494 318.652 128.817 327.332 118.125 327.332ZM327.914 323.452H189.777C183.004 323.452 177.516 317.961 177.516 311.192 177.516 304.41 183.004 298.921 189.777 298.921H327.914C334.695 298.921 340.181 304.41 340.181 311.192 340.181 317.961 334.695 323.452 327.914 323.452ZM452.497 327.332H393.112C382.41 327.332 373.743 318.652 373.743 307.961 373.743 297.266 382.417 288.592 393.112 288.592H452.497C463.198 288.592 471.873 297.266 471.873 307.961 471.873 318.652 463.198 327.332 452.497 327.332Z"/></svg>
